!!!COM: Schubert, Franz
!!!CNT: Deutscher
!!!TXO: Deutsch
!!!LYR: Johann Wolfgang von Goethe
!!!OTL: "Der Musensohn"
!!!OPS: Op. 92
!!!ONM: No. 1
!!!ODT: 1822/
!!NB: Vocal melody only encoded.
!!NB: Original key: G Major
**kern	**silbe
*clefG2	*
*k[f#c#g#d#]	*
*M6/8	*
*MM[Ziemlich lebhaft]	*
=6	=6
4r	.
8r	.
4r	.
{8g#	{Durch
=7	=7
4g#	Feld
8g#	und
4g#	Wald
8g#	zu
=8	=8
4.b	schwei-
4e}	-fen,}
{8b	{mein
=9	=9
4cc#	Lied-
8cc#	-chen
4ee	weg-
8cc#	-zu-
=10	=10
4.b	-pfei-
4g#}	-fen,}
{8g#	{so
=11	=11
4a	geht's
8g#	von
4f#	Ort
8b	zu
=12	=12
4.g#}	Ort,}
4r	.
{8g#	{so
=13	=13
4a	geht's
8g#	von
8f#	Ort
8cc#	|
8b	zu
=14	=14
4.e}	Ort!}
4r	.
{8g#	{Und
=15	=15
4g#	nach
8g#	dem
4g#	Tak-
8g#	-te
=16	=16
4.b	re-
4e}	-get,}
{8b	{und
=17	=17
4cc#	nach
8cc#	dem
4ee	Mass
8cc#	be-
=18	=18
4.b	-we-
4g#}	-get}
{8g#	{sich
=19	=19
4a#	Al-
8a#	-les
8a#	an
8g#	|
8f#	mir
=20	=20
[4.b	fort,
4b]}	|}
{8b	{und
=21	=21
4cc#	nach
8cc#	dem
4cc#	Mass
8cc#	be-
=22	=22
4.dd#	-we-
4ee}	-get}
{8g#	{sich
=23	=23
4b	Al-
8g#	-les
4a	an
8d#	mir
=24	=24
4e}	fort.}
8r	.
4r	.
8r	.
=25	=25
2.r	.
=26	=26
2.r	.
=27	=27
2.r	.
=28	=28
2.r	.
=29	=29
4r	.
8r	.
4r	.
{8g#	{Ich
=30	=30
*k[b-e-a-d-]	*
4a-	kann
8a-	sie
4a-	kaum
8a-	er-
=31	=31
4.g	-war-
4a-}	-ten,}
{8e-	{die
=32	=32
4e-	er-
8f	-ste
4g	Blum'
8a-	im
=33	=33
4.b-	Gar-
4a-}	-ten,}
{8cc	{die
=34	=34
4.dd-	er-
4.cc	-ste
=35	=35
4.b-	Blu2t'
4cc	am
8a-	|
=36	=36
4.b-}	Baum.}
4r	.
8r	.
=37	=37
4r	.
8r	.
4r	.
{8e-	{Sie
=38	=38
4a-	gru2-
8a-	-ssen
8cc	mei-
8b-	|
8a-	-ne
=39	=39
4.g	Lie-
4a-}	-der,}
{8e-	{und
=40	=40
4e-	kommt
8f	der
4g	Win-
8a-	-ter
=41	=41
4.b-	wie-
4a-}	-der,}
{8cc	{sing'
=42	=42
4.dd-	ich
4.cc	noch
=43	=43
4.b-	je-
4cc	-nen
8a-	|
=44	=44
4.b-}	Traum,}
4r	.
{8cc	{sing'
=45	=45
4ee-	ich
8dd-	|
4.cc	noch
=46	=46
4.b-	je-
4cc	-nen,
8a-	|
=47	=47
[4.cc	je-
4cc]	|
8b-	-nen
=48	=48
4.a-}	Traum.}
4r	.
8r	.
=49	=49
4r	.
8r	.
4r	.
{8a-	{Ich
=50	=50
*k[f#c#g#d#]	*
4g#	sing'
8g#	ihn
4g#	in
8g#	der
=51	=51
4.b	Wei-
4e}	-te,}
{8b	{auf
=52	=52
4cc#	Ei-
8cc#	-ses
4ee	La2ng'
8cc#	und
=53	=53
4.b	Brei-
4g#}	-te,}
{8g#	{da
=54	=54
4a#	blu2ht
8g#	der
4f#	Win-
8b	-ter
=55	=55
4.g#}	scho2n,}
4r	.
{8g#	{da
=56	=56
4a#	blu2ht
8g#	der
8f#	Win-
8cc#	|
8b	-ter
=57	=57
4e}	scho2n!}
8r	.
4r	.
{8g#	{Auch
=58	=58
4g#	die-
8g#	-se
4g#	Blu2-
8g#	-te
=59	=59
4.b	schwin-
4e}	-det,}
{8b	{und
=60	=60
4cc#	neu-
8cc#	-e
4ee	Freu-
8cc#	-de
=61	=61
4.b	fin-
4g#}	-det}
{8g#	{sich
=62	=62
4a#	auf
8a#	be-
8a#	-bau-
8g#	|
8f#	-ten
=63	=63
[4.b	Ho2hn,
4b]}	|}
{8b	{und
=64	=64
4cc#	neu-
8cc#	-e
4cc#	Freu-
8cc#	-de
=65	=65
4.dd#	fin-
4ee	-det
8g#	sich
=66	=66
4b	auf
8g#	be-
4a	-bau-
8d#	-ten
=67	=67
4e}	Ho2hn.}
8r	.
4r	.
8r	.
=68	=68
2.r	.
=69	=69
2.r	.
=70	=70
2.r	.
=71	=71
2.r	.
=72	=72
4r	.
8r	.
4r	.
{8g#	{Denn
=73	=73
*k[b-e-a-d-]	*
4a-	wie
8a-	ich
4a-	bei
8a-	der
=74	=74
4.g	Lin-
4a-	-de
8e-	das
=75	=75
4e-	jun-
8f	-ge
4g	Vo2lk-
8a-	-chen
=76	=76
4.b-	fin-
4a-}	-de,}
{8cc	{so-
=77	=77
4.dd-	-gleicht
4.cc	er-
=78	=78
4.b-	-reg'
4cc	ich
8a-	|
=79	=79
4.b-}	sie.}
4r	.
8r	.
=80	=80
4r	.
8r	.
4r	.
{8e-	{Der
=81	=81
4a-	stum-
8a-	-pfe
8cc	Bur-
8b-	|
8a-	-sche
=82	=82
4.g	bla2ht
4a-}	sich,}
{8e-	{das
=83	=83
4e-	stei-
8f	-fe
4g	Ma2d-
8a-	-chen
=84	=84
4.b-	dreht
4a-	sich
8cc	nach
=85	=85
4.dd-	mei-
4.cc	-ner
=86	=86
4.b-	Me-
4cc	-lo-
8a-	|
=87	=87
4.b-}	-die,}
4r	.
{8cc	{nach
=88	=88
4ee-	mei-
8dd-	|
4.cc	-ner,
=89	=89
4.b-	mei-
4cc	-ner
8a-	|
=90	=90
[4.cc	Me-
4cc]	|
8b-	-lo-
=91	=91
4a-}	-die.}
8r	.
4r	.
8r	.
=92	=92
4r	.
8r	.
4r	.
{8a-	{Ihr
=93	=93
*k[f#c#g#d#]	*
4g#	gebt
8g#	den
4g#	Soh-
8g#	-len
=94	=94
4.b	Flu2-
4e}	-gel}
{8b	{und
=95	=95
4cc#	treibt
8cc#	durch
4ee	Tal
8cc#	und
=96	=96
4.b	Hu2-
4g#}	-gel}
{8g#	{den
=97	=97
4a	Lieb-
8g#	-ling
4f#	weit
8b	von
=98	=98
4.g#}	Haus,}
4r	.
{8g#	{den
=99	=99
4a	Lieb-
8g#	-ling
8f#	weit
8cc#	|
8b	von
=100	=100
4e}	Haus.}
8r	.
4r	.
{8g#	{Ihr
=101	=101
4g#	lieb-
8g#	-ben,
4g#	hol-
8g#	-den
=102	=102
4.b	Mu-
4e}	-sen,}
{8b	{wann
=103	=103
4cc#	ruh'
8cc#	ich
4ee	ihr
8cc#	am
=104	=104
4.b	Bu-
4g#}	-sen}
{8g#	{auch
=105	=105
4a#	end-
8a#	-lich
8a#	wie-
8g#	|
8f#	-der
=106	=106
[4.b	aus,
4b]}	|}
{8b	{wann
=107	=107
4cc#	ruh'
8cc#	ich
4cc#	ihr
8cc#	am
=108	=108
4.dd#	Bu-
4ee}	-sen}
{8g#	{auch
=109	=109
4b	end-
8g#	-lich
4a	wie-
8d#	-der
=110	=110
4e}	aus?}
8r	.
4r	.
8r	.
==	==
*-	*-